img/favicons/icon.svg

<svg width="74" height="76" viewBox="0 0 74 76" fill="none" xmlns="http://www.w3.org/2000/svg">
<path fill-rule="evenodd" clip-rule="evenodd" d="M5.01125 30.0372C5.01125 31.3678 3.94067 32.4468 2.62037 32.4468C1.30007 32.4468 0.229492 31.3678 0.229492 30.0372V15.9478C0.229492 11.8006 1.91174 8.03158 4.62074 5.30071C7.3304 2.56983 11.0701 0.875087 15.1851 0.875087H29.1651C30.4854 0.875087 31.556 1.95338 31.556 3.28468C31.556 4.61531 30.4854 5.6936 29.1651 5.6936H15.1851C12.3898 5.6936 9.8468 6.8482 8.00117 8.7076C6.15688 10.5677 5.01125 13.1305 5.01125 15.9478V30.0372Z" fill="#DB5430"/>
<path fill-rule="evenodd" clip-rule="evenodd" d="M29.1651 70.3058C30.4854 70.3058 31.556 71.3848 31.556 72.7154C31.556 74.046 30.4854 75.125 29.1651 75.125H15.1851C11.0701 75.125 7.3304 73.4296 4.62074 70.6987C1.91108 67.9685 0.229492 64.1995 0.229492 60.0517V45.9629C0.229492 44.6323 1.29941 43.5533 2.62037 43.5533C3.94067 43.5533 5.01125 44.6323 5.01125 45.9629V60.0517C5.01125 62.8689 6.15621 65.4324 8.00117 67.2918C9.8468 69.1512 12.3898 70.3058 15.1851 70.3058H29.1651Z" fill="#DB5430"/>
<path fill-rule="evenodd" clip-rule="evenodd" d="M69.1204 45.9629C69.1204 44.6323 70.191 43.5533 71.5113 43.5533C72.8316 43.5533 73.9022 44.6323 73.9022 45.9629V60.0517C73.9022 64.1995 72.2199 67.9685 69.5109 70.6994C66.8013 73.4303 63.0615 75.125 58.9459 75.125H44.9666C43.6463 75.125 42.5757 74.0467 42.5757 72.7154C42.5757 71.3848 43.6463 70.3058 44.9666 70.3058H58.9459C61.7419 70.3058 64.2849 69.1512 66.1298 67.2918C67.9748 65.4324 69.1204 62.8689 69.1204 60.0517V45.9629Z" fill="#DB5430"/>
<path fill-rule="evenodd" clip-rule="evenodd" d="M44.9666 5.69433C43.6463 5.69433 42.5757 4.61537 42.5757 3.28474C42.5757 1.95411 43.6463 0.875148 44.9666 0.875148H58.9459C63.0615 0.875148 66.8013 2.57056 69.5109 5.30144C72.2206 8.03231 73.9022 11.8013 73.9022 15.9485V30.0379C73.9022 31.3685 72.8322 32.4475 71.5113 32.4475C70.191 32.4475 69.1204 31.3685 69.1204 30.0379V15.9485C69.1204 13.1313 67.9754 10.5677 66.1298 8.70833C64.2849 6.84893 61.7419 5.69433 58.9459 5.69433H44.9666Z" fill="#DB5430"/>
<path fill-rule="evenodd" clip-rule="evenodd" d="M47.2969 43.7694H53.0975C53.7702 43.7694 54.3148 44.3189 54.3148 44.9963V48.3697C54.3148 49.0471 53.7702 49.5966 53.0975 49.5966H45.604C44.9319 49.5966 44.3867 49.0471 44.3867 48.3697V46.683C44.3867 45.0733 45.707 43.7694 47.2969 43.7694ZM20.3849 43.7694C20.4075 43.7681 20.4301 43.7674 20.452 43.7674C20.4739 43.7674 20.4965 43.7681 20.5184 43.7694H26.3004C27.8896 43.7694 29.2099 45.0733 29.2099 46.683V48.3697C29.2106 49.0471 28.6647 49.5966 27.9932 49.5966H20.5184C19.8463 49.5966 19.3011 49.0471 19.3011 48.3697V44.9963V44.9889C19.3011 44.3631 19.7673 43.8377 20.3849 43.7694ZM31.5111 22.474H37.0839H42.6374C49.0814 22.474 51.8648 27.9792 53.478 30.0454C53.6507 30.2623 53.745 30.5334 53.745 30.8118C53.745 31.4892 53.1997 32.0387 52.5276 32.0387C52.5217 32.0387 52.5143 32.0387 52.5077 32.0387L37.0839 31.9812H37.0646L21.6209 32.0387C20.9488 32.0387 20.4035 31.4892 20.4035 30.8118C20.4035 30.5334 20.4978 30.263 20.6705 30.0454C22.2837 27.9792 25.0671 22.474 31.5111 22.474ZM29.362 18.3723C25.7226 18.3723 22.892 19.9412 20.7655 22.0141C18.9869 23.7477 17.6573 25.8213 16.5622 27.7068C16.0129 27.4786 15.4033 27.3427 14.7743 27.3427C13.2316 27.3427 11.9338 27.9471 11.1608 28.9337C10.3877 29.9203 10.1506 31.194 10.3618 32.3841C10.7125 34.3586 12.3151 36.2147 14.7551 36.793L13.6141 40.4536C13.5769 40.5727 13.557 40.7119 13.557 40.8371V52.108V54.2545C13.557 56.1139 15.0878 57.6279 16.9241 57.6279H20.2143C22.0499 57.6279 23.5993 56.1139 23.5993 54.2545V53.3342H50.5485V54.2545C50.5485 56.1139 52.0793 57.6279 53.915 57.6279H57.2058C59.0441 57.6279 60.5909 56.1099 60.5909 54.2545V52.108V40.8371C60.5909 40.7119 60.5709 40.5727 60.5338 40.4536L59.3928 36.793C61.8335 36.2153 63.4154 34.3586 63.7667 32.3841C63.9786 31.194 63.7614 29.9203 62.9871 28.9337C62.2133 27.9471 60.9183 27.3427 59.3735 27.3427C58.7446 27.3427 58.1349 27.4786 57.5857 27.7068C56.4912 25.8213 55.1609 23.7477 53.3824 22.0141C51.2565 19.9412 48.4233 18.3723 44.7858 18.3723H37.0839H29.362Z" fill="#DB5430"/>
</svg>

<svg xmlns="http://www.w3.org/2000/svg" width="74" height="76" fill="none"><path fill="#DB5430" fill-rule="evenodd" d="M5 30c0 1.4-1 2.4-2.4 2.4-1.3 0-2.4-1-2.4-2.4V16A15 15 0 0 1 15.2.8h14c1.3 0 2.4 1 2.4 2.4 0 1.3-1.1 2.4-2.4 2.4h-14A10.3 10.3 0 0 0 5 16v14ZM29.2 70.3c1.3 0 2.4 1 2.4 2.4 0 1.3-1.1 2.4-2.4 2.4h-14a15 15 0 0 1-15-15V46A2.4 2.4 0 1 1 5 46v14a10.3 10.3 0 0 0 10.2 10.3h14ZM69.1 46c0-1.4 1-2.4 2.4-2.4 1.3 0 2.4 1 2.4 2.4v14a15 15 0 0 1-15 15.1H45c-1.3 0-2.3-1-2.3-2.4 0-1.3 1-2.4 2.4-2.4h14A10.3 10.3 0 0 0 69.1 60V46ZM45 5.7c-1.4 0-2.4-1-2.4-2.4 0-1.3 1-2.4 2.4-2.4h14a15 15 0 0 1 15 15V30c-.1 1.4-1.2 2.4-2.5 2.4s-2.4-1-2.4-2.4V16A10.3 10.3 0 0 0 59 5.6H45Z" clip-rule="evenodd"/><path fill="#DB5430" fill-rule="evenodd" d="M47.3 43.8h5.8c.7 0 1.2.5 1.2 1.2v3.4c0 .6-.5 1.2-1.2 1.2h-7.5c-.7 0-1.2-.6-1.2-1.2v-1.7a3 3 0 0 1 2.9-3Zm-27 0a1.2 1.2 0 0 1 .2 0h5.8a3 3 0 0 1 3 2.9v1.7c0 .6-.6 1.2-1.3 1.2h-7.5c-.7 0-1.2-.6-1.2-1.2V45c0-.6.5-1.2 1-1.2Zm11.2-21.3h11.1c6.5 0 9.3 5.5 10.9 7.5a1.2 1.2 0 0 1-1 2H21.6a1.2 1.2 0 0 1-1-2c1.7-2 4.5-7.5 11-7.5Zm-2.1-4.1a12 12 0 0 0-8.6 3.6 26.2 26.2 0 0 0-4.2 5.7c-.6-.2-1.2-.4-1.8-.4-1.6 0-2.9.6-3.6 1.6-.8 1-1 2.3-.8 3.5.3 2 2 3.8 4.4 4.4l-1.2 3.7v13.8c0 1.8 1.5 3.3 3.3 3.3h3.3c1.8 0 3.4-1.5 3.4-3.3v-1h27v1c0 1.8 1.5 3.3 3.3 3.3h3.3c1.8 0 3.4-1.5 3.4-3.3V40.5l-1.2-3.7c2.4-.6 4-2.4 4.4-4.4.2-1.2 0-2.5-.8-3.5s-2-1.6-3.6-1.6c-.7 0-1.3.2-1.8.4-1.1-1.9-2.4-4-4.2-5.7a12 12 0 0 0-8.6-3.6H29.4Z" clip-rule="evenodd"/></svg>
